X:1
T:Title
%%score { ( 1 3 4 ) | 2 }
L:1/8
M:4/4
K:G
V:1 treble nm="Grand Piano"
V:3 treble 
V:4 treble 
V:2 bass 
V:1
 z4 z2[Q:1/4=100] DG | B>B BB BAGB |[M:3/4] d>^c de d2 |[M:1/4] GB |[M:4/4] d6 z2 | A6 z2 | %6
 [DB]>[DB] [DB][DB] [DB][CA]GB | d>^c de d2 GB | [Dd]6 z2 |[M:3/4] [B,G]6 |[M:1/4] [DGB][Gd] | %11
[M:4/4] [Ge]>[Ge] [Ge][Ge] [Ge][Ec][EG][Ge] | d>d dd d2 Bd | c>c cc [Fc][FA]FD | d>d d[Fc] B2 BA | %15
 G6 z2 | z z/ C/ CC C2 [Ec][Ge] | [Gd]2 Gc B2 z C | [B,DG]6 z2 |] %19
V:2
 z4 z2 [G,B,][G,B,] | [G,D]>[G,D] [G,D][G,D] [G,D][G,C][G,B,][K:treble][G,D] | %2
[M:3/4] [G,B,G]>[G,_B,G] [G,=B,G][G,CG] [G,B,G]2 |[M:1/4] z2 |[M:4/4] z2 [B,D][A,C] [G,B,]2 z2 | %5
 z2[K:bass] [F,A,][E,G,] [D,F,]C,[B,,G,][A,,F,] | %6
 [G,,G,]>[G,,G,] [G,,G,][G,,G,] [G,,G,][G,,G,][G,B,][K:treble][G,D] | %7
 [G,B,G]>[G,_B,G] [G,=B,G][G,CG] [G,B,G]2 [B,D][G,DG] | D,E,F,G, A,2 D,D, |[M:3/4] G,6 | %10
[M:1/4] G,[G,B,] |[M:4/4] [C,C]>[C,C] [C,C][C,C] [C,C][C,G,][C,C][C,C] | %12
 [G,B,G]>[G,B,G] [G,B,G][G,B,G] [G,B,G]2 [G,DG][B,DG] | %13
 [A,DF]>[A,DF] [A,DF][A,DF][K:bass] [D,C][D,D][K:treble][CD]C | %14
 [B,DG]>[A,CF] [G,B,G][D,A,] [G,G]2 GF | E>[K:bass][E,B,] [E,B,][E,B,] [E,B,]2 ED | %16
 C>[C,G,] [C,G,][C,G,] [C,G,]2 [C,G,][C,E,] | [B,,G,]2 [C,G,]2 [D,G,D]2 .[D,F,D]2 | G,,6 z2 |] %19
V:3
 x8 | x8 |[M:3/4] x6 |[M:1/4] x2 |[M:4/4] z2 GF G2 GB | z2 D^C z A,[Dd][Dc] | x8 | x8 | %8
 FGAB c2 [DFc][CFA] |[M:3/4] x6 |[M:1/4] x2 |[M:4/4] x8 | x8 | x8 | x8 | z z/ E/ EE E2 GF | E6 z2 | %17
 z2 E2 z2 A2 | x8 |] %19
V:4
 x8 | x8 |[M:3/4] x6 |[M:1/4] x2 |[M:4/4] x8 | z4 D2 z2 | x8 | x8 | x8 |[M:3/4] x6 |[M:1/4] x2 | %11
[M:4/4] x8 | x8 | x8 | x8 | x8 | x8 | x8 | x8 |] %19

